packages/icons/svg/Fill/arrow-up.svg

<svg width="24" height="24" viewBox="0 0 24 24" fill="none" xmlns="http://www.w3.org/2000/svg">
<g id="Icon/Fill/arrow-up">
<path id="Mask" fill-rule="evenodd" clip-rule="evenodd" d="M5.23191 10.6401C5.58591 11.0641 6.21591 11.1221 6.63991 10.7681L10.9999 7.13512V19.0001C10.9999 19.5521 11.4479 20.0001 11.9999 20.0001C12.5519 20.0001 12.9999 19.5521 12.9999 19.0001V7.13512L17.3599 10.7681C17.7849 11.1221 18.4149 11.0641 18.7679 10.6401C19.1219 10.2161 19.0649 9.58512 18.6399 9.23212L12.6399 4.23212C12.5929 4.19212 12.5369 4.17312 12.4849 4.14312C12.4439 4.11912 12.4079 4.09112 12.3629 4.07312C12.2459 4.02712 12.1239 4.00012 11.9999 4.00012C11.8759 4.00012 11.7539 4.02712 11.6369 4.07312C11.5919 4.09112 11.5559 4.11912 11.5149 4.14312C11.4629 4.17312 11.4069 4.19212 11.3599 4.23212L5.35991 9.23212C4.93591 9.58512 4.87791 10.2161 5.23191 10.6401Z" fill="#000000"/>
</g>
</svg>

<svg fill="none" height="24" viewBox="0 0 24 24" width="24" xmlns="http://www.w3.org/2000/svg"><path clip-rule="evenodd" d="m5.23191 10.64c.354.424.984.482 1.408.128l4.35999-3.633v11.865c0 .552.448 1 1 1s1-.448 1-1v-11.865l4.36 3.633c.425.354 1.055.296 1.408-.128.354-.424.297-1.055-.128-1.408l-6-5c-.047-.04-.103-.059-.155-.089-.041-.024-.077-.052-.122-.07-.117-.046-.239-.073-.363-.073s-.246.027-.363.073c-.045.018-.081.046-.122.07-.052.03-.108.049-.155.089l-5.99999 5c-.424.353-.482.984-.128 1.408" fill="#6b7280" fill-rule="evenodd"/></svg>
